public/icons/couch.svg

<svg width="30" height="30" viewBox="0 0 30 30" fill="none" xmlns="http://www.w3.org/2000/svg">
<path d="M9.0625 5C8.15082 5 7.27648 5.36216 6.63182 6.00682C5.98716 6.65148 5.625 7.52582 5.625 8.4375V10.1087C4.73521 10.32 3.94269 10.8252 3.3756 11.5427C2.80852 12.2602 2.50002 13.148 2.5 14.0625V17.8125C2.49988 18.6702 2.82038 19.4969 3.39857 20.1304C3.97677 20.7638 4.77088 21.1583 5.625 21.2362V22.8125C5.625 23.0611 5.72377 23.2996 5.89959 23.4754C6.0754 23.6512 6.31386 23.75 6.5625 23.75C6.81114 23.75 7.0496 23.6512 7.22541 23.4754C7.40123 23.2996 7.5 23.0611 7.5 22.8125V21.25H22.5V22.8125C22.5 23.0611 22.5988 23.2996 22.7746 23.4754C22.9504 23.6512 23.1889 23.75 23.4375 23.75C23.6861 23.75 23.9246 23.6512 24.1004 23.4754C24.2762 23.2996 24.375 23.0611 24.375 22.8125V21.2362C25.2291 21.1583 26.0232 20.7638 26.6014 20.1304C27.1796 19.4969 27.5001 18.6702 27.5 17.8125V14.0625C27.5 13.148 27.1915 12.2602 26.6244 11.5427C26.0573 10.8252 25.2648 10.32 24.375 10.1087V8.4375C24.375 7.52582 24.0128 6.65148 23.3682 6.00682C22.7235 5.36216 21.8492 5 20.9375 5H9.0625ZM24.0625 19.375H5.9375C5.075 19.375 4.375 18.675 4.375 17.8125V14.0625C4.375 13.4823 4.60547 12.9259 5.0157 12.5157C5.42594 12.1055 5.98234 11.875 6.5625 11.875C7.14266 11.875 7.69906 12.1055 8.1093 12.5157C8.51953 12.9259 8.75 13.4823 8.75 14.0625V14.6875C8.75 15.205 9.17 15.625 9.6875 15.625H20.3125C20.5611 15.625 20.7996 15.5262 20.9754 15.3504C21.1512 15.1746 21.25 14.9361 21.25 14.6875V14.0625C21.25 13.4823 21.4805 12.9259 21.8907 12.5157C22.3009 12.1055 22.8573 11.875 23.4375 11.875C24.0177 11.875 24.5741 12.1055 24.9843 12.5157C25.3945 12.9259 25.625 13.4823 25.625 14.0625V17.8125C25.625 18.675 24.925 19.375 24.0625 19.375ZM22.5 10.1087C21.6625 10.3079 20.9098 10.7678 20.3504 11.4222C19.7911 12.0766 19.4539 12.8917 19.3875 13.75H10.6125C10.5461 12.8917 10.2089 12.0766 9.64957 11.4222C9.09021 10.7678 8.33753 10.3079 7.5 10.1087V8.4375C7.5 7.575 8.2 6.875 9.0625 6.875H20.9375C21.8 6.875 22.5 7.575 22.5 8.4375V10.1087Z" fill="#1C1C1C"/>
</svg>

<svg xmlns="http://www.w3.org/2000/svg" width="30" height="30" fill="none"><path fill="#1C1C1C" d="M9.063 5a3.437 3.437 0 0 0-3.438 3.438v1.67A4.064 4.064 0 0 0 2.5 14.063v3.75a3.438 3.438 0 0 0 3.125 3.424v1.576a.937.937 0 0 0 1.875 0V21.25h15v1.563a.938.938 0 0 0 1.875 0v-1.577a3.437 3.437 0 0 0 3.125-3.424v-3.75a4.064 4.064 0 0 0-3.125-3.953V8.438A3.438 3.438 0 0 0 20.937 5H9.063Zm15 14.375H5.938c-.863 0-1.563-.7-1.563-1.563v-3.75a2.187 2.187 0 1 1 4.375 0v.626c0 .517.42.937.938.937h10.624a.938.938 0 0 0 .938-.938v-.624a2.188 2.188 0 0 1 4.375 0v3.75c0 .862-.7 1.562-1.563 1.562ZM22.5 10.109a4.066 4.066 0 0 0-3.113 3.641h-8.774A4.065 4.065 0 0 0 7.5 10.109V8.438c0-.863.7-1.563 1.563-1.563h11.874c.863 0 1.563.7 1.563 1.563v1.67Z"/></svg>
